assets/icons/navigation/tab_salesreport_icon.svg

<svg fill="none" height="22" viewBox="0 0 22 22" width="22" xmlns="http://www.w3.org/2000/svg"><g stroke="#606975"><path d="m19.9474 4.5v-2.5c0-.55228-.4477-1-1-1h-16.9474c-.55228 0-1 .44771-1 1v15.9474c0 .5523.44772 1 1 1h5.82105"/><g stroke-linecap="round" stroke-linejoin="round" stroke-miterlimit="10"><path d="m11.7681 10.4053h-1.0866"/><path d="m11.7681 8.23242h-1.0866"/><path d="m18.2852 10.4053h-4.0747"/><path d="m18.2842 8.23242h-4.0747"/><path d="m6.05942 4.1582h12.76738c1.2021 0 2.1732.97114 2.1732 2.17318v14.66892l-1.6299-1.0866-1.6299 1.0866-1.6298-1.0866-1.6299 1.0866-1.6299-1.0866-1.6299 1.0866-1.62987-1.0866-1.62988 1.0866v-14.94057c0-1.05263-.8489-1.90153-1.90153-1.90153zm0 0c-1.05263 0-1.90153.8489-1.90153 1.90153v2.17318h1.62989"/><path d="m10.002 15.0234h4.0747"/><path d="m15.9339 16.3818c.1562.3192.4822.5433.8557.5433h.5433c.5229 0 .9508-.4278.9508-.9507 0-.523-.4279-.9508-.9508-.9508h-.5433c-.5229 0-.9507-.4278-.9507-.9508 0-.5229.4278-.9507.9507-.9507h.5433c.3803 0 .7063.2241.8557.5433"/><path d="m17.0601 12.5791v.5433"/><path d="m17.0601 16.9258v.5433"/></g></g></svg>

<svg width="22" height="22" viewBox="0 0 22 22" fill="none" xmlns="http://www.w3.org/2000/svg">
<path d="M19.9474 4.5V2C19.9474 1.44772 19.4997 1 18.9474 1H2C1.44772 1 1 1.44771 1 2V17.9474C1 18.4997 1.44772 18.9474 2 18.9474H7.82105" stroke="#606975"/>
<path d="M11.7681 10.4053H10.6815" stroke="#606975" stroke-miterlimit="10" stroke-linecap="round" stroke-linejoin="round"/>
<path d="M11.7681 8.23242H10.6815" stroke="#606975" stroke-miterlimit="10" stroke-linecap="round" stroke-linejoin="round"/>
<path d="M18.2852 10.4053H14.2105" stroke="#606975" stroke-miterlimit="10" stroke-linecap="round" stroke-linejoin="round"/>
<path d="M18.2842 8.23242H14.2095" stroke="#606975" stroke-miterlimit="10" stroke-linecap="round" stroke-linejoin="round"/>
<path d="M6.05942 4.1582H18.8268C20.0289 4.1582 21 5.12934 21 6.33138V21.0003L19.3701 19.9137L17.7402 21.0003L16.1104 19.9137L14.4805 21.0003L12.8506 19.9137L11.2207 21.0003L9.59083 19.9137L7.96095 21.0003V6.05973C7.96095 5.0071 7.11205 4.1582 6.05942 4.1582ZM6.05942 4.1582C5.00679 4.1582 4.15789 5.0071 4.15789 6.05973V8.23291H5.78778" stroke="#606975" stroke-miterlimit="10" stroke-linecap="round" stroke-linejoin="round"/>
<path d="M10.002 15.0234H14.0767" stroke="#606975" stroke-miterlimit="10" stroke-linecap="round" stroke-linejoin="round"/>
<path d="M15.9339 16.3818C16.0901 16.701 16.4161 16.9251 16.7896 16.9251H17.3329C17.8558 16.9251 18.2837 16.4973 18.2837 15.9744C18.2837 15.4514 17.8558 15.0236 17.3329 15.0236H16.7896C16.2667 15.0236 15.8389 14.5958 15.8389 14.0728C15.8389 13.5499 16.2667 13.1221 16.7896 13.1221H17.3329C17.7132 13.1221 18.0392 13.3462 18.1886 13.6654" stroke="#606975" stroke-miterlimit="10" stroke-linecap="round" stroke-linejoin="round"/>
<path d="M17.0601 12.5791V13.1224" stroke="#606975" stroke-miterlimit="10" stroke-linecap="round" stroke-linejoin="round"/>
<path d="M17.0601 16.9258V17.4691" stroke="#606975" stroke-miterlimit="10" stroke-linecap="round" stroke-linejoin="round"/>
</svg>
